X: 1
T: Kostursko Oro (in D)
R: lesnoto
O: Makedonija
Z: John Chambers <jc@trillian.mit.edu>
M: 7/8
L: 1/8
K: D
|: "D"[A3F3] [A2F2] [B2G2] | "A"[c3-A3-] [c2A2] [A2F2] |\
   "G"[B3G3] [B2G2] [B2G2] | "D"[A3F3] [AF][GE] [F2D2] |\
   "D"[A3F3] [A2F2] [B2G2] | "A"[c3-A3-] [c2A2] [A2F2] |
   "G"[B3G3] [B2G2] [B2G2] | "A7"[A3F3] [GE][AF] [GE][FD] |\
   "D"[F3-D3-] [F4-D4-] | [F3-D3-] [F2D2] z2 :|\
   "G"[AF][BG][BG] [BG][AF] [cA][BG] | "D"[AF][FD][BG] [AF][GE] [FD][GE] |
   "A7"[AF][FD][BG] [AF][GE] [GE][FD] | "D"[FD][GE][EC] [FD][GE] [A2F2] |\
   "G"[AF][BG][BG] [BG][AF] [cA][BG] | "D"[AF][FD][BG] [AF][GE] [FD][GE] |\
   "A7"[AF][FD][BG] [AF][GE] [GE][FD] | "D"[F3-D3-] [F2D2] z2 |]
